**kern
*staff1
*head1[head1a]
*solo1[solo1a]
*solo2[solo2a]
=1-
*clefG2
*k[]
*F:
*M4/4
1r
=2
1r
=3
1r
=4
1r
=5
*>head1a
{4f/
8r
8c/
8f/L
8g/
8f/
8d/J
=6||
8f/L
8b-/
8a/
8f/J
8ee/L
8cc#/
8a/
8g/J
=7
8a\L
8cc\
8b-\
16cc\L
16b-\JJ
8a/L
8f/J
4g/}
=8
8r
{[8dd\
4dd\]
8cc/L
8a/
8f/
8e-/J
=9
4d/
8r
[8b\
8b\L]
[8b-\
8b-\]
8f\J
=10
8cc\L
8cc\
8b-\
8f\J
8g/L
8f/
8a/
8c/J}
=11
4r
8r
{8f/
8e/L
8f/
8a/
8cc/J
=12
8ee/L
8cc/
8a/
8e/J
8g/L
8f/
8f#/
8dd/J
=13
8cc\L
8cc\
8b-\
8f\J
4a/}
8r
{8cc\
=14
8cc#\L
8dd\
8b-\
8d\J
4a/
8cc#/L
[8g/J
=15
8g/L]
8e/
8f/
[8g/J
8g/L]
8c#/J
12d/L
12f/
12a/J
=16
8cc\L
8b-\
8ee-\
[8cc;\J
8cc\]}
*>solo1a
{4b-\
8a/
=17
4f/
8a/L
8f/J
8g/L
8f/J
[4c/
=18||
4c/]}
4r
4r
8r
{[8a/
=19
4a/]
8b-\L
8bn\J
8cc\L
8a\
8b-\
16cc\L
16b-\JJ
=20
8a/L
8g/
8e-/
8c/J
24g/LL
24a/
24g/JJ
8f/L
8d-/
8A/J
=21
4c/
8B-/L
8A/J
8c/L
[8B-/J
4B-/]}
=22
2r
2r
=23
8r
{8e/
12f/L
12a/
12cc/J
8ee\L
8ee-\
8dd\
8dd-\J
=24
8cc/L
8a/
8e/
8c/J
8e-/L
8b/
8a-/
8an/J
=25
4b-\}
4r
8r
{16d/LL
16e/JJ
16g\LL
16b-\
16cc\
16dd\JJ
=26
16ff\LL
16dd\
16ee-\
16een\JJ
16cc\LL
16cc#\
16dd\
16ccn\JJ
16b-/LL
16a/
16g/
16f/JJ
16e/LL
16G/
16B-/
16d-/JJ
=27
4c/
8r
8a/
16e-/LK
[8.en/
8e/]
8g/J}
=28
8r
{[8d/
2d/_
8d/L]
8e/J
=29
4f/
8r
16e/LL
16c/JJ
8B/L
8c/
8e/
8g/J
=30||
8f/L
8c#/J
12d/L
12f/
12a/J
8cc/L
8b-/
8d-/
8B/J
=31
8c/L
8b-/
8g/
8g#/J
2a/}
=32
2k
4r
8r
{[8f/
=33
8f/L]
8b/
8b-/
8f/J
4bn\
8b-/L
[8a-/J
=34
24a-/LL]1B-:dom
24b-/
24a-/JJ
8f/L
8g/
[8f/J
8f/L]
8e-/
8d/
8d-/J
=35
8c/L
8B-/J
16A/LL
16c/
16e/
16g/JJ
8cc/L
8g/
8e/
8c/J
=36
8c#/L
8d/
8B-/
8G/J
12A/L
12B-/
12Bn/J
8cn/L
8A/J
=37
2B-/}
2r
=38
8r
{[8f/
2.f/_
=39
4f/]
8c/L
8B/J
2c/}
=40
2r
4r
*>solo2a
{8ff\L
8ee\J
=41
4ff\
8cc\L
8b\J
4cc\
8a/L
8a-/J
=42||
8a/L
8g/
8e/
8d/J
8d-/L
8e/
8g/
8b-/J
=43
8a/L
8f/
8d/
8A/J
8d-/L
8a/
8f/
8d-/J
=44
8c/L
8B-/J
16c/LL
16e-/
16g/
16b-/JJ
8dd\L
8dd-\
8cc\
8bn\J
=45
8b-/L
8f/
8g/
[8a-/J
4a-/]}
4r
=46
1r
=47
8r
{8e/
12f/L
12a/
12cc/J
8ee\L
16ff\L
16ff#\J
8gg\
16ff#\L
16ffn\JJ
=48
8ee/L
8cc/
8a/
8e/J
8e-/L
8b/
8a-/
8an/J
=49
8b-\
8r
16f#/LL
16g/
16b-/
16dd/JJ
8ff\L
8dd\J}
4r
=50
4r
8r
{8c#/
12d/L
12f/
12a/J
8cc\L
8b-\J
=51
[4a/
8a\L]
16cc\L
16b-\JJ
8a/L
8f/
8d/
8c/J
=52
8g/L
8f/
8g/
[8a-/J
8a-/L]
16d/L
16c/J
8B-/
8d/J
=53
12e/L
12f/
12d/J
12e/
[6c/
4c/]}
4r
==
*-
